X: 137022
Q: "Irish Jig."
M: 6/8
L: 1/8
K: D
uD |\
|: uf |\
fad fad | faa agf | egc egc | egg gfe |\
fef gfg | agf efg | fed cBA | Add d2 :|


